; Generated by GCodeGen 0.1.0
; Input file: bill-2.svg
G21 ; Set units to millimeters
G90 ; Use absolute coordinates
M83 ; Use relative distances for extrusion
G28 X Y ; Home X and Y
G1 Z10 F1000 ; Raise Z to safe height
; H.Airbrush Dual-Airbrush Plotter G-code
; Generated by GCodeGen
M451 ; CNC mode
G17 ; X-Y plane
G21 ; mm units
G90 ; Absolute positioning
M17 ; Enable all motors
M564 H1 S1 ; Enforce soft limits and require homing
G28 ; Home X, Y, Z axes
G28 U ; Home U axis (Brush A flow control)
G28 V ; Home V axis (Brush B flow control)
G92 Z10.000 ; Set Z height
M84 S0 ; No stepper timeout
; ===== AIRBRUSH SYSTEM INITIALIZATION =====
; 1. Turn off all air solenoids
M106 P2 S0 ; Brush A air off
M106 P3 S0 ; Brush B air off
G4 P500 ; Wait for air to stop completely
; 2. Ensure U and V axes are at minimum position (closed)
G1 U0.000 F200.0 ; Close Brush A flow
G1 V0.000 F200.0 ; Close Brush B flow
M400 ; Wait for stepper motion to complete
; --- Tool Selection ---
T0 ; Select Tool 0 (Brush A) as the default tool
; STEPPER AND FAN CONFIGURATION:
; - Brush A: Air=Fan2, Flow=U axis (0.0-4.0mm, dead zone 0.0-0.8mm)
; - Brush B: Air=Fan3, Flow=V axis (0.0-4.0mm, dead zone 0.0-0.8mm)
; ===== END AIRBRUSH SYSTEM INITIALIZATION =====

; Width clamped from 31.00mm to 25.00mm within [2.00,25.00] mm
; ===== STROKE PARAMETERS =====
; Color: black
; Width: 25.00mm
; Opacity: 0.25
; Brush: A
; Z-height: 83.00mm
; Paint flow: 0.38 -> U2.000mm
; Feedrate: 16724.6mm/min
; START BRUSH A
T0 ; Select Tool 0 (Brush A)
G1 Z83.000 F1200.000
M400 ; Wait for Z movement to complete
G0 X200.103 Y307.638 F24000.000
M400 ; Wait for XY movement to complete
G1 F16724.641
M106 P2 S1 ; Air on at motion start
G1 X200.177 Y307.697 U2.000
G1 X200.284 Y307.784
G1 X200.424 Y307.897
G1 X200.595 Y308.035
G1 X200.795 Y308.195
G1 X201.024 Y308.377
G1 X201.281 Y308.581
G1 X201.571 Y308.812
G1 X201.900 Y309.076
G1 X202.276 Y309.381
G1 X202.709 Y309.737
G1 X203.212 Y310.155
G1 X203.802 Y310.650
G1 X204.504 Y311.237
G1 X205.342 Y311.936
G1 X206.348 Y312.773
G1 X207.546 Y313.772
G1 X208.962 Y314.960
G1 X210.628 Y316.349
G1 X212.544 Y317.943
G1 X214.704 Y319.743
G1 X217.067 Y321.711
G1 X219.588 Y323.811
G1 X222.204 Y325.990
G1 X224.867 Y328.214
G1 X227.546 Y330.446
G1 X230.217 Y332.666
G1 X232.869 Y334.867
G1 X235.500 Y337.042
G1 X238.105 Y339.192
G1 X240.677 Y341.310
G1 X243.214 Y343.393
G1 X245.717 Y345.446
G1 X248.189 Y347.479
G1 X250.637 Y349.504
G1 X253.055 Y351.526
G1 X255.440 Y353.542
G1 X257.800 Y355.547
G1 X260.140 Y357.538
G1 X262.469 Y359.515
G1 X264.787 Y361.479
G1 X267.092 Y363.427
G1 X269.380 Y365.360
G1 X271.650 Y367.278
G1 X273.910 Y369.185
G1 X276.154 Y371.082
G1 X278.384 Y372.968
G1 X280.601 Y374.841
G1 X282.803 Y376.701
G1 X284.983 Y378.547
G1 X287.144 Y380.380
G1 X289.290 Y382.203
G1 X291.415 Y384.009
G1 X293.500 Y385.783
G1 X295.518 Y387.497
G1 X297.397 Y389.097
G1 X299.130 Y390.576
G1 X300.686 Y391.918
G1 X302.035 Y393.117
G1 X303.170 Y394.178
G1 X304.096 Y395.112
G1 X304.819 Y395.938
G1 X305.356 Y396.668
G1 X305.721 Y397.318
G1 X305.930 Y397.903
G1 X305.993 Y398.440
G1 X305.924 Y398.946
G1 X305.723 Y399.436
G1 X305.390 Y399.920
G1 X304.924 Y400.409
G1 X304.318 Y400.911
G1 X303.556 Y401.438
G1 X302.617 Y402.003
G1 X301.458 Y402.619
G1 X300.040 Y403.306
G1 X298.307 Y404.078
G1 X296.193 Y404.941
G1 X293.674 Y405.883
G1 X290.748 Y406.870
G1 X287.457 Y407.840
G1 X283.895 Y408.724
G1 X280.188 Y409.477
G1 X276.487 Y410.070
G1 X272.904 Y410.495
G1 X269.499 Y410.751
G1 X266.324 Y410.856
G1 X263.391 Y410.829
G1 X260.633 Y410.684
G1 X257.962 Y410.414
G1 X255.336 Y410.026
G1 X252.752 Y409.541
G1 X250.240 Y409.006
G1 X247.794 Y408.435
G1 X245.349 Y407.799
G1 X242.724 Y406.991
G1 X239.759 Y405.914
G1 X236.434 Y404.578
G1 X232.904 Y403.087
G1 X229.235 Y401.458
G1 X225.448 Y399.723
G1 X221.642 Y397.994
G1 X217.850 Y396.404
G1 X214.027 Y394.961
G1 X210.251 Y393.608
G1 X206.541 Y392.282
G1 X202.838 Y390.916
G1 X199.168 Y389.499
G1 X195.628 Y388.057
G1 X192.318 Y386.614
G1 X189.258 Y385.170
G1 X186.374 Y383.698
G1 X183.579 Y382.144
G1 X180.927 Y380.471
G1 X178.429 Y378.636
G1 X176.041 Y376.632
G1 X173.660 Y374.521
G1 X171.248 Y372.406
G1 X168.818 Y370.393
G1 X166.380 Y368.521
G1 X163.932 Y366.805
G1 X161.466 Y365.220
G1 X158.968 Y363.738
G1 X156.423 Y362.332
G1 X153.831 Y360.979
G1 X151.192 Y359.661
G1 X148.506 Y358.378
G1 X145.785 Y357.135
G1 X143.033 Y355.930
G1 X140.252 Y354.764
G1 X137.453 Y353.639
G1 X134.645 Y352.558
G1 X131.836 Y351.528
G1 X129.027 Y350.549
G1 X126.220 Y349.615
G1 X123.411 Y348.720
G1 X120.592 Y347.856
G1 X117.754 Y347.023
G1 X114.897 Y346.220
G1 X112.016 Y345.445
G1 X109.106 Y344.695
G1 X106.173 Y343.967
G1 X103.223 Y343.255
G1 X100.266 Y342.554
G1 X97.304 Y341.858
G1 X94.344 Y341.165
G1 X91.385 Y340.474
G1 X88.425 Y339.789
G1 X85.459 Y339.113
G1 X82.486 Y338.449
G1 X79.505 Y337.800
G1 X76.508 Y337.165
G1 X73.489 Y336.548
G1 X70.455 Y335.949
G1 X67.426 Y335.364
G1 X64.416 Y334.789
G1 X61.428 Y334.219
G1 X58.459 Y333.651
G1 X55.503 Y333.079
G1 X52.562 Y332.498
G1 X49.636 Y331.907
G1 X46.721 Y331.310
G1 X43.803 Y330.711
G1 X40.874 Y330.114
G1 X37.933 Y329.517
G1 X35.010 Y328.922
G1 X32.194 Y328.328
G1 X29.886 Y327.735
G1 X28.466 Y327.139
G1 X27.892 Y326.544
G1 X28.121 Y325.946
G1 X29.112 Y325.335
G1 X30.826 Y324.683
G1 X33.081 Y323.950
G1 X35.555 Y323.110
G1 X38.007 Y322.133
G1 X40.428 Y320.987
G1 X42.841 Y319.653
G1 X45.283 Y318.122
G1 X47.766 Y316.394
G1 X50.279 Y314.496
G1 X52.806 Y312.461
G1 X55.334 Y310.327
G1 X57.858 Y308.129
G1 X60.380 Y305.895
G1 X62.884 Y303.652
G1 X65.352 Y301.427
G1 X67.779 Y299.233
G1 X70.170 Y297.072
G1 X72.539 Y294.942
G1 X74.884 Y292.836
G1 X77.204 Y290.757
G1 X79.495 Y288.700
G1 X81.753 Y286.667
G1 X83.978 Y284.652
G1 X86.158 Y282.658
G1 X88.285 Y280.684
G1 X90.353 Y278.734
G1 X92.364 Y276.803
G1 X94.325 Y274.890
G1 X96.243 Y272.990
G1 X98.123 Y271.103
G1 X99.970 Y269.222
G1 X101.786 Y267.343
G1 X103.573 Y265.454
G1 X105.331 Y263.551
G1 X107.063 Y261.620
G1 X108.768 Y259.667
G1 X110.445 Y257.694
G1 X112.092 Y255.707
G1 X113.712 Y253.709
G1 X115.301 Y251.695
G1 X116.856 Y249.656
G1 X118.382 Y247.579
G1 X119.882 Y245.443
G1 X121.364 Y243.255
G1 X122.828 Y241.017
G1 X124.270 Y238.736
G1 X125.689 Y236.413
G1 X127.087 Y234.040
G1 X128.476 Y231.619
G1 X129.861 Y229.153
G1 X131.242 Y226.645
G1 X132.622 Y224.107
G1 X134.000 Y221.544
G1 X135.372 Y218.961
G1 X136.735 Y216.345
G1 X138.096 Y213.688
G1 X139.463 Y211.000
G1 X140.840 Y208.309
G1 X142.214 Y205.645
G1 X143.570 Y203.028
G1 X144.901 Y200.475
G1 X146.218 Y198.019
G1 X147.530 Y195.712
G1 X148.854 Y193.606
G1 X150.217 Y191.744
G1 X151.671 Y190.135
G1 X153.265 Y188.778
G1 X155.046 Y187.621
G1 X157.065 Y186.608
G1 X159.295 Y185.687
G1 X161.715 Y184.809
G1 X164.292 Y183.915
G1 X166.981 Y182.951
G1 X169.730 Y181.867
G1 X172.486 Y180.620
G1 X175.214 Y179.160
G1 X177.890 Y177.395
G1 X180.506 Y175.260
G1 X183.073 Y172.731
G1 X185.599 Y169.929
G1 X188.088 Y167.071
G1 X190.526 Y164.322
G1 X192.900 Y161.711
G1 X195.203 Y159.245
G1 X197.439 Y156.919
G1 X199.610 Y154.731
G1 X201.719 Y152.673
G1 X203.777 Y150.720
G1 X205.790 Y148.860
G1 X207.762 Y147.095
G1 X209.691 Y145.434
G1 X211.562 Y143.904
G1 X213.364 Y142.536
G1 X215.092 Y141.340
G1 X216.749 Y140.314
G1 X218.347 Y139.443
G1 X219.898 Y138.705
G1 X221.418 Y138.065
G1 X222.925 Y137.499
G1 X224.437 Y137.007
G1 X225.975 Y136.586
G1 X227.527 Y136.274
G1 X229.079 Y136.110
G1 X230.648 Y136.141
G1 X232.321 Y136.401
G1 X234.195 Y136.930
G1 X236.366 Y137.721
G1 X238.939 Y138.771
G1 X241.795 Y140.073
G1 X244.835 Y141.613
G1 X247.976 Y143.367
G1 X251.183 Y145.317
G1 X254.404 Y147.452
G1 X257.568 Y149.672
G1 X260.556 Y151.598
G1 X263.358 Y152.940
G1 X266.160 Y153.733
G1 X269.097 Y154.080
G1 X272.164 Y154.056
G1 X275.235 Y153.689
G1 X278.194 Y152.921
G1 X280.929 Y151.662
G1 X283.340 Y149.881
G1 X285.305 Y147.611
G1 X286.774 Y144.907
G1 X287.724 Y141.843
G1 X288.240 Y138.570
G1 X288.459 Y135.279
G1 X288.565 Y132.181
G1 X288.690 Y129.381
G1 X288.861 Y126.873
G1 X289.089 Y124.611
G1 X289.351 Y122.531
G1 X289.647 Y120.587
G1 X289.978 Y118.726
G1 X290.354 Y116.951
G1 X290.788 Y115.260
G1 X291.301 Y113.665
G1 X291.907 Y112.178
G1 X292.608 Y110.813
G1 X293.383 Y109.585
G1 X294.214 Y108.522
G1 X295.079 Y107.640
G1 X295.966 Y106.992
G1 X296.881 Y106.598
G1 X297.834 Y106.474
G1 X298.852 Y106.630
G1 X299.961 Y107.074
G1 X301.191 Y107.826
G1 X302.583 Y108.921
G1 X304.189 Y110.416
G1 X305.993 Y112.369
G1 X307.996 Y114.866
G1 X309.988 Y117.658
G1 X311.774 Y120.338
G1 X313.301 Y122.671
G1 X314.624 Y124.817
G1 X315.783 Y126.873
G1 X316.741 Y128.860
G1 X317.444 Y130.760
G1 X317.841 Y132.559
G1 X317.900 Y134.279
G1 X317.606 Y135.961
G1 X316.944 Y137.652
G1 X315.923 Y139.382
G1 X314.547 Y141.182
G1 X312.827 Y143.050
G1 X310.830 Y144.981
G1 X308.666 Y146.968
G1 X306.395 Y149.011
G1 X304.049 Y151.133
G1 X301.654 Y153.331
G1 X299.270 Y155.538
G1 X296.900 Y157.715
G1 X294.534 Y159.861
G1 X292.163 Y161.925
G1 X289.848 Y163.846
G1 X287.578 Y165.621
G1 X285.295 Y167.304
G1 X282.919 Y168.966
G1 X280.416 Y170.656
G1 X277.810 Y172.328
G1 X275.140 Y173.847
G1 X272.283 Y175.062
G1 X269.224 Y176.033
G1 X265.949 Y176.874
G1 X262.411 Y177.662
G1 X258.606 Y178.422
G1 X254.739 Y179.115
G1 X250.973 Y179.692
G1 X247.369 Y180.139
G1 X243.928 Y180.409
G1 X240.449 Y180.448
G1 X236.782 Y180.298
G1 X233.013 Y180.028
G1 X229.269 Y179.686
G1 X225.624 Y179.303
G1 X222.048 Y178.895
G1 X218.520 Y178.456
G1 X215.029 Y177.935
G1 X211.511 Y177.207
G1 X207.900 Y176.136
G1 X204.241 Y174.633
G1 X200.676 Y172.728
G1 X197.308 Y170.656
G1 X194.141 Y168.653
G1 X191.114 Y166.796
G1 X188.160 Y165.105
G1 X185.205 Y163.510
G1 X182.193 Y161.938
G1 X179.088 Y160.338
G1 X175.884 Y158.679
G1 X172.598 Y156.967
G1 X169.266 Y155.223
G1 X165.921 Y153.493
G1 X162.592 Y151.826
G1 X159.297 Y150.260
G1 X156.058 Y148.812
G1 X152.899 Y147.489
G1 X149.832 Y146.270
G1 X146.856 Y145.140
G1 X143.968 Y144.071
G1 X141.149 Y143.036
G1 X138.375 Y142.023
G1 X135.624 Y141.012
G1 X132.879 Y139.994
G1 X130.134 Y138.951
G1 X127.387 Y137.880
G1 X124.633 Y136.779
G1 X121.872 Y135.641
G1 X119.105 Y134.477
G1 X116.334 Y133.292
G1 X113.562 Y132.093
G1 X110.796 Y130.887
G1 X108.044 Y129.675
G1 X105.304 Y128.460
G1 X102.574 Y127.233
G1 X99.854 Y125.997
G1 X97.140 Y124.756
G1 X94.426 Y123.507
G1 X91.701 Y122.248
G1 X88.960 Y120.983
G1 X86.199 Y119.711
G1 X83.427 Y118.433
G1 X80.656 Y117.157
G1 X77.899 Y115.888
G1 X75.165 Y114.628
G1 X72.463 Y113.387
G1 X69.801 Y112.165
G1 X67.179 Y110.961
G1 X64.572 Y109.762
G1 X61.924 Y108.543
G1 X59.161 Y107.257
G1 X56.343 Y105.937
G1 X53.606 Y104.645
G1 X51.079 Y103.436
G1 X48.788 Y102.317
G1 X46.712 Y101.264
G1 X44.805 Y100.235
G1 X43.026 Y99.198
G1 X41.338 Y98.121
G1 X39.696 Y96.980
G1 X38.049 Y95.745
G1 X36.375 Y94.409
G1 X34.675 Y92.967
G1 X32.970 Y91.416
G1 X31.465 Y89.747
G1 X30.327 Y87.937
G1 X29.723 Y85.987
G1 X29.752 Y83.889
G1 X30.406 Y81.627
G1 X31.567 Y79.179
G1 X33.089 Y76.520
G1 X34.826 Y73.652
G1 X36.582 Y70.628
G1 X38.326 Y67.503
G1 X40.019 Y64.312
G1 X41.643 Y61.084
G1 X43.200 Y57.819
G1 X44.702 Y54.544
G1 X46.170 Y51.308
G1 X47.669 Y48.289
G1 X49.259 Y45.622
G1 X50.980 Y43.363
G1 X52.851 Y41.487
G1 X54.865 Y39.971
G1 X57.022 Y38.812
G1 X59.369 Y38.029
G1 X61.938 Y37.597
G1 X64.744 Y37.502
G1 X67.746 Y37.693
G1 X70.888 Y38.089
G1 X74.098 Y38.576
G1 X77.321 Y39.058
G1 X80.549 Y39.508
G1 X83.778 Y39.931
G1 X86.992 Y40.333
G1 X90.177 Y40.719
G1 X93.326 Y41.095
G1 X96.442 Y41.471
G1 X99.528 Y41.857
G1 X102.606 Y42.270
G1 X105.701 Y42.722
G1 X108.821 Y43.220
G1 X111.943 Y43.746
G1 X115.014 Y44.254
G1 X117.985 Y44.701
G1 X120.839 Y45.085
G1 X123.575 Y45.410
G1 X126.207 Y45.680
G1 X128.749 Y45.913
G1 X131.210 Y46.151
G1 X133.583 Y46.408
G1 X135.870 Y46.688
G1 X138.078 Y46.990
G1 X140.212 Y47.313
G1 X142.281 Y47.667
G1 X144.284 Y48.056
G1 X146.225 Y48.485
G1 X148.112 Y48.969
G1 X149.955 Y49.511
G1 X151.761 Y50.123
G1 X153.534 Y50.811
G1 X155.278 Y51.575
G1 X156.993 Y52.414
G1 X158.679 Y53.337
G1 X160.342 Y54.359
G1 X161.983 Y55.491
G1 X163.606 Y56.743
G1 X165.219 Y58.118
G1 X166.838 Y59.640
G1 X168.471 Y61.301
G1 X170.100 Y63.111
G1 X171.712 Y65.074
G1 X173.295 Y67.199
G1 X174.846 Y69.488
G1 X176.365 Y71.935
G1 X177.834 Y74.512
G1 X179.240 Y77.195
G1 X180.568 Y79.954
G1 X181.829 Y82.756
G1 X183.023 Y85.548
G1 X184.153 Y88.265
G1 X185.255 Y90.887
G1 X186.315 Y93.332
G1 X187.339 Y95.573
G1 X188.321 Y97.610
G1 X189.251 Y99.457
G1 X190.123 Y101.137
G1 X190.939 Y102.682
G1 X191.672 Y104.174
G1 X192.361 Y105.653
G1 X193.010 Y107.169
G1 X193.619 Y108.770
G1 X194.190 Y110.506
G1 X194.727 Y112.408
G1 X195.236 Y114.528
G1 X195.739 Y116.914
G1 X196.258 Y119.618
G1 X196.808 Y122.671
G1 X197.381 Y126.058
G1 X197.943 Y129.715
G1 X198.426 Y133.506
G1 X198.753 Y137.295
G1 X198.872 Y140.994
G1 X198.779 Y144.571
G1 X198.502 Y148.019
G1 X198.090 Y151.336
G1 X197.598 Y154.538
G1 X197.082 Y157.660
G1 X196.595 Y160.732
G1 X196.176 Y163.806
G1 X195.850 Y166.949
G1 X195.631 Y170.217
G1 X195.521 Y173.511
G1 X195.502 Y176.541
G1 X195.531 Y179.261
G1 X195.555 Y181.798
G1 X195.525 Y184.457
G1 X195.408 Y187.370
G1 X195.181 Y190.595
G1 X194.839 Y194.098
G1 X194.381 Y197.840
G1 X193.797 Y201.822
G1 X193.099 Y206.020
G1 X192.343 Y210.312
G1 X191.582 Y214.564
G1 X190.835 Y218.720
G1 X190.106 Y222.771
G1 X189.397 Y226.708
G1 X188.711 Y230.531
G1 X188.047 Y234.233
G1 X187.404 Y237.802
G1 X186.764 Y241.231
G1 X186.131 Y244.446
G1 X185.508 Y247.457
G1 X184.898 Y250.264
G1 X184.297 Y252.870
G1 X183.697 Y255.296
G1 X183.083 Y257.577
G1 X182.444 Y259.747
G1 X181.766 Y261.824
G1 X181.052 Y263.822
G1 X180.306 Y265.755
G1 X179.529 Y267.655
G1 X178.718 Y269.558
G1 X177.866 Y271.486
G1 X176.970 Y273.468
G1 X176.033 Y275.520
G1 X175.053 Y277.661
G1 X174.019 Y279.915
G1 X172.925 Y282.304
G1 X171.773 Y284.842
G1 X170.573 Y287.528
G1 X169.339 Y290.359
G1 X168.083 Y293.303
G1 X166.818 Y296.326
G1 X165.567 Y299.398
G1 X164.359 Y302.502
G1 X163.197 Y305.655
G1 X162.075 Y308.856
G1 X160.988 Y312.097
G1 X159.935 Y315.354
G1 X158.917 Y318.595
G1 X157.940 Y321.785
G1 X157.011 Y324.923
G1 X156.122 Y328.019
G1 X155.264 Y331.063
G1 X154.431 Y334.037
G1 X153.622 Y336.924
G1 X152.834 Y339.731
G1 X152.075 Y342.450
G1 X151.353 Y345.081
G1 X150.715 Y347.586
G1 X150.144 Y349.932
G1 X149.580 Y352.204
G1 X149.024 Y354.408
G1 X148.458 Y356.590
G1 X147.858 Y358.809
G1 X147.198 Y361.123
G1 X146.450 Y363.596
G1 X145.591 Y366.289
G1 X144.615 Y369.231
G1 X143.526 Y372.428
G1 X142.345 Y375.844
G1 X141.109 Y379.413
G1 X139.850 Y383.052
G1 X138.588 Y386.693
G1 X137.334 Y390.287
G1 X136.094 Y393.812
G1 X134.870 Y397.265
G1 X133.666 Y400.650
G1 X132.495 Y403.963
G1 X131.361 Y407.202
G1 X130.265 Y410.374
G1 X129.200 Y413.489
G1 X128.155 Y416.563
G1 X127.124 Y419.602
G1 X126.100 Y422.612
G1 X125.082 Y425.594
G1 X124.065 Y428.553
G1 X123.042 Y431.491
G1 X122.010 Y434.416
G1 X120.964 Y437.336
G1 X119.900 Y440.258
G1 X118.821 Y443.175
G1 X117.734 Y446.082
G1 X116.646 Y448.972
G1 X115.561 Y451.844
G1 X114.479 Y454.698
G1 X113.398 Y457.537
G1 X112.317 Y460.367
G1 X111.243 Y463.188
G1 X110.180 Y466.000
G1 X109.130 Y468.805
G1 X108.087 Y471.611
G1 X107.048 Y474.414
G1 X106.012 Y477.209
G1 X104.984 Y479.997
G1 X103.966 Y482.782
G1 X102.959 Y485.558
G1 X101.961 Y488.322
G1 X100.968 Y491.082
G1 X99.974 Y493.775
G1 X98.985 Y496.136
G1 X98.001 Y497.827
G1 X97.027 Y498.659
G1 X96.059 Y498.676
G1 X95.088 Y497.919
G1 X94.086 Y496.428
G1 X93.006 Y494.343
G1 X91.805 Y491.969
G1 X90.453 Y489.582
G1 X88.922 Y487.186
G1 X87.198 Y484.767
G1 X85.299 Y482.299
G1 X83.258 Y479.786
G1 X81.123 Y477.243
G1 X78.936 Y474.687
G1 X76.726 Y472.134
G1 X74.514 Y469.592
G1 X72.310 Y467.066
G1 X70.121 Y464.561
G1 X67.953 Y462.081
G1 X65.810 Y459.626
G1 X63.691 Y457.198
G1 X61.595 Y454.791
G1 X59.521 Y452.404
G1 X57.470 Y450.037
G1 X55.441 Y447.688
G1 X53.433 Y445.356
G1 X51.445 Y443.038
G1 X49.480 Y440.737
G1 X47.536 Y438.451
G1 X45.610 Y436.181
G1 X43.696 Y433.922
G1 X41.789 Y431.668
G1 X39.885 Y429.413
G1 X37.982 Y427.152
G1 X36.105 Y424.892
G1 X34.305 Y422.637
