; Generated by GCodeGen 0.1.0
; Input file: heart-4-5.svg
G21 ; Set units to millimeters
G90 ; Use absolute coordinates
M83 ; Use relative distances for extrusion
G28 X Y ; Home X and Y
G1 Z10 F1000 ; Raise Z to safe height
; H.Airbrush Dual-Airbrush Plotter G-code
; Generated by GCodeGen
M451 ; CNC mode
G17 ; X-Y plane
G21 ; mm units
G90 ; Absolute positioning
M17 ; Enable all motors
M564 H1 S1 ; Enforce soft limits and require homing
G28 ; Home X, Y, Z axes
G28 U ; Home U axis (Brush A flow control)
G28 V ; Home V axis (Brush B flow control)
G0 Z5.000 F1200 ; Raise Z to safe height
M400 ; Wait for Z movement to complete
G92 Z5.000 ; Set Z height
M84 S0 ; No stepper timeout
; ===== AIRBRUSH SYSTEM INITIALIZATION =====
; 1. Turn off all air solenoids
M106 P2 S0 ; Brush A air off
M106 P3 S0 ; Brush B air off
G4 P500 ; Wait for air to stop completely
; 2. Ensure U and V axes are at minimum position (closed)
G1 U0.000 F200.0 ; Close Brush A flow
G1 V0.000 F200.0 ; Close Brush B flow
M400 ; Wait for stepper motion to complete
; --- Tool Selection ---
T0 ; Select Tool 0 (Brush A) as the default tool
G4 P500 ; Wait for tool selection to complete
; STEPPER AND FAN CONFIGURATION:
; - Brush A: Air=Fan2, Flow=U axis (0.0-4.0mm, dead zone 0.0-0.8mm)
; - Brush B: Air=Fan3, Flow=V axis (0.0-4.0mm, dead zone 0.0-0.8mm)
; ===== END AIRBRUSH SYSTEM INITIALIZATION =====

; ===== STROKE PARAMETERS =====
; Color: black
; Width: 1.56mm
; Opacity: 0.12
; Brush: A
; Z-height: 5.92mm
; Paint flow: 0.25 -> U1.584mm
; Feedrate: 6000.0mm/min
; START BRUSH A
G0 Z5.000 F1200 ; Raise Z to safe height before tool change
M400 ; Wait for Z movement to complete
T0 ; Select Tool 0 (Brush A)
G4 P500 ; Wait for tool change to complete
G0 X280.123 Y312.614 F24000
M400 ; Wait for XY movement to complete
G1 Z5.925 F1200
M400 ; Wait for Z movement to complete
G1 F6000.0
M106 P2 S1 ; Air on at motion start
G1 X280.375 Y312.370 U1.584
G1 X280.538 Y312.377
G1 X280.640 Y312.846
G1 X280.791 Y313.790
G1 X281.114 Y315.133
G1 X281.746 Y315.941
G1 X282.256 Y316.145
G1 X282.540 Y315.832
G1 X282.550 Y315.085
G1 X282.248 Y313.989
G1 X282.065 Y313.165
G1 X282.286 Y312.781
G1 X282.958 Y312.671
G1 X284.083 Y312.643
G1 X284.782 Y312.258
G1 X284.936 Y311.688
G1 X284.583 Y310.986
G1 X283.862 Y310.116
G1 X283.719 Y309.184
G1 X284.081 Y308.154
G1 X284.869 Y306.975
G1 X285.241 Y305.578
G1 X285.058 Y304.227
G1 X284.377 Y303.125
G1 X283.665 Y302.399
G1 X283.114 Y302.067
G1 X282.683 Y302.111
G1 X282.299 Y302.472
G1 X281.814 Y303.094
G1 X281.082 Y303.952
G1 X280.118 Y304.862
G1 X279.227 Y305.524
G1 X278.425 Y305.813
G1 X277.724 Y305.711
G1 X277.140 Y305.230
G1 X276.523 Y304.378
G1 X275.630 Y303.253
G1 X274.303 Y302.184
G1 X272.582 Y301.245
G1 X270.671 Y300.307
G1 X268.660 Y299.060
G1 X266.456 Y297.589
G1 X264.469 Y296.346
G1 X262.787 Y295.371
G1 X261.451 Y294.678
G1 X260.235 Y294.467
G1 X259.310 Y294.776
G1 X258.689 Y295.537
G1 X258.296 Y296.720
G1 X257.928 Y298.312
G1 X257.536 Y299.859
G1 X257.265 Y301.252
G1 X257.214 Y302.560
G1 X257.372 Y303.734
G1 X257.564 Y304.599
G1 X257.567 Y305.062
G1 X257.373 Y305.147
G1 X257.175 Y304.897
G1 X257.105 Y304.336
G1 X257.167 Y303.458
G1 X257.299 Y302.226
G1 X257.548 Y300.651
G1 X257.940 Y298.786
G1 X258.350 Y296.824
G1 X258.716 Y295.280
G1 X259.289 Y294.358
G1 X260.104 Y293.961
G1 X261.173 Y294.008
G1 X262.507 Y294.424
G1 X264.125 Y295.043
G1 X265.973 Y295.846
G1 X267.697 Y296.591
G1 X269.539 Y297.463
G1 X271.244 Y298.170
G1 X272.756 Y298.354
G1 X274.066 Y297.997
G1 X275.036 Y297.192
G1 X275.490 Y296.150
G1 X275.460 Y295.502
G1 X275.323 Y295.434
G1 X275.129 Y295.895
G1 X274.816 Y296.817
G1 X274.259 Y297.584
G1 X273.450 Y298.014
G1 X272.532 Y298.125
G1 X271.414 Y297.921
G1 X269.989 Y297.420
G1 X268.322 Y296.717
G1 X266.912 Y296.123
G1 X265.612 Y295.574
G1 X264.296 Y294.939
G1 X263.238 Y294.524
G1 X262.399 Y294.270
G1 X261.663 Y294.134
G1 X260.994 Y294.184
G1 X260.522 Y294.670
G1 X260.131 Y295.634
G1 X259.582 Y296.988
G1 X258.802 Y298.649
G1 X257.845 Y300.156
G1 X256.965 Y301.233
G1 X256.154 Y301.906
G1 X255.305 Y302.313
G1 X254.040 Y302.513
G1 X252.401 Y302.535
G1 X250.494 Y302.320
G1 X248.292 Y301.924
G1 X245.797 Y301.452
G1 X244.077 Y301.007
G1 X242.658 Y300.383
G1 X240.943 Y299.530
G1 X238.973 Y298.546
G1 X237.446 Y297.506
G1 X236.171 Y296.442
G1 X235.321 Y295.749
G1 X234.825 Y295.578
G1 X234.558 Y295.919
G1 X234.425 Y296.741
G1 X234.201 Y297.997
G1 X233.731 Y298.890
G1 X233.163 Y299.269
G1 X232.508 Y299.104
G1 X231.746 Y298.459
G1 X230.874 Y297.386
G1 X229.794 Y296.374
G1 X228.623 Y295.951
G1 X227.311 Y296.030
G1 X225.730 Y296.441
G1 X224.069 Y296.626
G1 X222.412 Y296.520
G1 X221.096 Y296.459
G1 X220.338 Y296.462
G1 X219.948 Y296.376
G1 X219.752 Y296.095
G1 X219.598 Y295.497
G1 X219.326 Y294.449
G1 X218.905 Y293.009
G1 X218.395 Y291.396
G1 X217.957 Y290.247
G1 X217.526 Y289.657
G1 X217.001 Y289.478
G1 X216.420 Y289.503
G1 X215.817 Y289.590
G1 X215.232 Y289.623
G1 X214.676 Y289.537
G1 X214.118 Y289.264
G1 X213.553 Y288.747
G1 X213.032 Y287.969
G1 X212.626 Y286.869
G1 X212.386 Y285.399
G1 X212.385 Y283.606
G1 X212.557 Y281.703
G1 X212.673 Y279.838
G1 X212.656 Y277.982
G1 X212.505 Y276.490
G1 X212.233 Y275.280
G1 X211.857 Y274.169
G1 X211.346 Y273.112
G1 X210.644 Y272.115
G1 X209.690 Y271.100
G1 X208.612 Y270.068
G1 X207.694 Y269.057
G1 X207.204 Y268.079
G1 X207.246 Y267.351
G1 X207.776 Y266.882
G1 X208.762 Y266.596
G1 X210.071 Y266.439
G1 X211.379 Y266.359
G1 X212.517 Y266.364
G1 X213.498 Y266.501
G1 X214.420 Y266.815
G1 X215.389 Y267.292
G1 X216.434 Y267.880
G1 X217.556 Y268.524
G1 X218.696 Y269.197
G1 X219.702 Y269.895
G1 X220.389 Y270.632
G1 X220.559 Y271.460
G1 X220.224 Y272.406
G1 X219.497 Y273.508
G1 X218.595 Y274.571
G1 X217.653 Y275.235
G1 X216.736 Y275.573
G1 X215.893 Y275.670
G1 X215.118 Y275.592
G1 X214.394 Y275.384
G1 X213.721 Y275.075
G1 X213.094 Y274.703
G1 X212.500 Y274.288
G1 X211.843 Y273.830
G1 X210.993 Y273.350
G1 X209.821 Y272.873
G1 X208.299 Y272.468
G1 X206.755 Y272.265
G1 X205.548 Y272.368
G1 X204.814 Y272.798
G1 X204.510 Y273.572
G1 X204.588 Y274.355
G1 X204.952 Y274.623
G1 X205.588 Y274.438
G1 X206.526 Y273.894
G1 X207.850 Y273.301
G1 X209.170 Y272.961
G1 X210.132 Y272.766
G1 X210.733 Y272.546
G1 X211.092 Y272.187
G1 X211.351 Y271.578
G1 X211.618 Y270.613
G1 X211.931 Y269.283
G1 X212.206 Y267.839
G1 X212.348 Y266.498
G1 X212.331 Y265.291
G1 X212.123 Y264.048
G1 X211.694 Y262.505
G1 X211.085 Y260.791
G1 X210.442 Y259.167
G1 X209.919 Y257.585
G1 X209.697 Y256.258
G1 X209.867 Y255.354
G1 X210.339 Y254.856
G1 X210.986 Y254.737
G1 X211.765 Y254.980
G1 X212.679 Y255.576
G1 X213.694 Y256.495
G1 X214.669 Y257.597
G1 X215.490 Y258.692
G1 X216.197 Y259.675
G1 X216.927 Y260.640
G1 X217.697 Y261.598
G1 X218.444 Y262.464
G1 X219.126 Y263.107
G1 X219.676 Y263.562
G1 X220.040 Y263.887
G1 X220.080 Y264.108
G1 X219.812 Y264.317
G1 X219.360 Y264.621
G1 X218.792 Y265.147
G1 X218.148 Y266.066
G1 X217.528 Y267.263
G1 X216.990 Y268.549
G1 X216.502 Y269.902
G1 X216.066 Y271.333
G1 X215.778 Y272.701
G1 X215.736 Y273.851
G1 X215.946 Y274.682
G1 X216.374 Y275.224
G1 X216.985 Y275.593
G1 X217.802 Y275.864
G1 X218.750 Y276.059
G1 X219.696 Y276.210
G1 X220.416 Y276.287
G1 X220.595 Y276.203
G1 X220.292 Y275.880
G1 X219.720 Y275.157
G1 X219.147 Y274.003
G1 X218.688 Y272.519
G1 X218.284 Y270.998
G1 X217.918 Y269.585
G1 X217.610 Y268.338
G1 X217.372 Y267.219
G1 X217.163 Y266.258
G1 X216.908 Y265.459
G1 X216.529 Y264.759
G1 X216.003 Y263.993
G1 X215.325 Y262.949
G1 X214.544 Y261.624
G1 X213.664 Y260.262
G1 X212.648 Y258.928
G1 X211.561 Y257.609
G1 X210.564 Y256.575
G1 X209.709 Y255.957
G1 X209.104 Y255.734
G1 X208.791 Y255.831
G1 X208.800 Y256.245
G1 X209.085 Y257.025
G1 X209.543 Y258.210
G1 X210.070 Y259.665
G1 X210.553 Y261.244
G1 X210.816 Y262.925
G1 X210.756 Y264.338
G1 X210.372 Y265.453
G1 X209.725 Y266.482
G1 X209.007 Y267.558
G1 X208.344 Y268.636
G1 X207.814 Y269.634
G1 X207.438 Y270.492
G1 X207.213 Y271.230
G1 X207.121 Y271.940
G1 X207.149 Y272.737
G1 X207.278 Y273.790
G1 X207.562 Y274.969
G1 X208.171 Y276.047
G1 X209.163 Y277.105
G1 X210.347 Y278.463
G1 X211.495 Y280.000
G1 X212.498 Y281.372
G1 X213.372 Y282.591
G1 X214.162 Y283.729
G1 X214.942 Y284.709
G1 X215.747 Y285.389
G1 X216.526 Y285.672
G1 X217.067 Y285.477
G1 X217.307 Y284.838
G1 X217.287 Y283.792
G1 X217.203 Y282.428
G1 X217.249 Y281.035
G1 X217.427 Y279.615
G1 X217.671 Y278.286
G1 X217.899 Y277.616
G1 X218.083 Y277.539
G1 X218.223 Y277.995
G1 X218.346 Y278.931
G1 X218.485 Y280.242
G1 X218.621 Y281.501
G1 X218.663 Y282.650
G1 X218.460 Y283.539
G1 X217.914 Y283.959
G1 X217.084 Y283.986
G1 X216.157 Y283.824
G1 X215.139 Y283.567
G1 X213.966 Y283.240
G1 X212.600 Y282.835
G1 X211.161 Y282.328
G1 X209.917 Y281.581
G1 X209.021 Y280.521
G1 X208.539 Y279.311
G1 X208.541 Y278.150
G1 X208.993 Y277.216
G1 X209.722 Y276.594
G1 X210.464 Y276.295
G1 X211.061 Y276.344
G1 X211.544 Y276.763
G1 X211.972 Y277.642
G1 X212.400 Y278.958
G1 X212.820 Y280.374
G1 X213.160 Y281.556
G1 X213.344 Y282.524
G1 X213.337 Y283.373
G1 X213.124 Y284.172
G1 X212.712 Y284.960
G1 X212.199 Y285.720
G1 X211.676 Y286.367
G1 X211.155 Y286.893
G1 X210.518 Y287.414
G1 X209.580 Y288.038
G1 X208.214 Y288.671
G1 X206.584 Y288.925
G1 X205.099 Y288.628
G1 X203.868 Y287.844
G1 X202.746 Y286.613
G1 X201.643 Y285.019
G1 X200.612 Y283.502
G1 X199.560 Y282.050
G1 X198.519 Y280.664
G1 X197.519 Y279.373
G1 X196.521 Y278.153
G1 X195.582 Y276.997
G1 X194.801 Y275.926
G1 X194.138 Y275.224
G1 X193.570 Y275.118
G1 X192.989 Y275.545
G1 X192.353 Y276.419
G1 X191.831 Y277.355
G1 X191.413 Y278.386
G1 X190.943 Y279.611
G1 X190.333 Y280.910
G1 X189.704 Y282.064
G1 X189.310 Y282.879
G1 X189.369 Y283.329
G1 X189.910 Y283.537
G1 X190.918 Y283.650
G1 X192.343 Y283.805
G1 X194.006 Y283.925
G1 X195.673 Y284.016
G1 X197.221 Y284.115
G1 X198.608 Y284.260
G1 X199.804 Y284.464
G1 X200.784 Y284.688
G1 X201.663 Y284.923
G1 X202.583 Y285.167
G1 X203.670 Y285.358
G1 X204.692 Y285.543
G1 X205.440 Y285.957
G1 X205.953 Y286.533
G1 X206.307 Y287.093
G1 X206.593 Y287.465
G1 X206.864 Y287.551
G1 X207.075 Y287.390
G1 X207.146 Y287.118
G1 X207.018 Y286.878
G1 X206.678 Y286.719
G1 X206.131 Y286.615
G1 X205.396 Y286.466
G1 X204.493 Y286.096
G1 X203.378 Y285.458
G1 X202.126 Y284.690
G1 X200.946 Y283.843
G1 X199.732 Y282.851
G1 X198.464 Y281.720
G1 X197.187 Y280.530
G1 X195.876 Y279.391
G1 X194.597 Y278.409
G1 X193.589 Y277.716
G1 X192.805 Y277.158
G1 X192.172 Y276.627
G1 X191.643 Y276.124
G1 X191.137 Y275.580
G1 X190.536 Y274.966
G1 X189.710 Y274.306
G1 X188.626 Y273.549
G1 X187.275 Y272.750
G1 X185.745 Y271.949
G1 X184.131 Y271.242
G1 X182.516 Y270.659
G1 X181.153 Y270.266
G1 X180.017 Y269.940
G1 X178.989 Y269.473
G1 X178.219 Y268.765
G1 X177.971 Y267.846
G1 X178.203 Y266.756
G1 X178.781 Y265.460
G1 X179.361 Y264.011
G1 X179.774 Y262.511
G1 X179.949 Y261.081
G1 X179.988 Y259.833
G1 X180.016 Y258.614
G1 X180.052 Y257.246
G1 X180.008 Y255.872
G1 X179.804 Y254.599
G1 X179.462 Y253.320
G1 X179.068 Y251.955
G1 X178.633 Y250.610
G1 X178.192 Y249.313
G1 X177.875 Y248.068
G1 X177.770 Y246.888
G1 X177.890 Y245.810
G1 X178.199 Y244.841
G1 X178.644 Y243.976
G1 X179.171 Y243.186
G1 X179.718 Y242.347
G1 X180.206 Y241.406
G1 X180.524 Y240.362
G1 X180.606 Y239.317
G1 X180.473 Y238.265
G1 X180.168 Y237.181
G1 X179.714 Y236.046
G1 X179.194 Y234.867
G1 X178.695 Y233.684
G1 X178.334 Y232.501
G1 X178.210 Y231.325
G1 X178.363 Y230.163
G1 X178.751 Y229.038
G1 X179.275 Y227.959
G1 X179.885 Y226.901
G1 X180.596 Y225.832
G1 X181.452 Y224.751
G1 X182.524 Y223.659
G1 X183.387 Y222.607
G1 X183.638 Y221.636
G1 X183.340 Y220.712
G1 X182.558 Y219.768
G1 X181.678 Y218.762
G1 X181.034 Y217.758
G1 X180.658 Y216.764
G1 X180.520 Y215.765
G1 X180.616 Y214.749
G1 X180.942 Y213.708
G1 X181.504 Y212.639
G1 X182.317 Y211.556
G1 X183.151 Y210.547
G1 X183.627 Y209.689
G1 X183.536 Y208.837
G1 X183.047 Y207.736
G1 X182.422 Y206.508
G1 X181.773 Y205.464
G1 X181.008 Y204.914
G1 X180.089 Y204.858
G1 X179.088 Y204.992
G1 X178.114 Y205.176
G1 X177.414 Y205.373
G1 X177.183 Y205.602
G1 X177.476 Y205.884
G1 X178.104 Y206.245
G1 X178.900 Y206.708
G1 X179.719 Y207.296
G1 X180.612 Y208.044
G1 X181.599 Y208.876
G1 X182.673 Y209.718
G1 X183.496 Y210.541
G1 X183.934 Y211.599
G1 X184.209 Y213.063
G1 X184.474 Y214.566
G1 X184.401 Y215.826
G1 X183.825 Y216.836
G1 X182.824 Y217.652
G1 X181.955 Y218.390
G1 X181.272 Y219.123
G1 X180.775 Y219.927
G1 X180.378 Y220.824
G1 X180.023 Y221.831
G1 X179.692 Y222.908
G1 X179.381 Y223.977
G1 X179.073 Y225.001
G1 X178.746 Y225.958
G1 X178.410 Y226.857
G1 X178.148 Y227.717
G1 X178.012 Y228.579
G1 X178.038 Y229.488
G1 X178.264 Y230.468
G1 X178.686 Y231.522
G1 X179.273 Y232.629
G1 X179.974 Y233.715
G1 X180.739 Y234.727
G1 X181.546 Y235.637
G1 X182.443 Y236.425
G1 X183.513 Y237.118
G1 X184.546 Y237.675
G1 X185.195 Y238.171
G1 X185.395 Y238.433
G1 X185.325 Y238.257
G1 X184.905 Y237.842
G1 X184.069 Y237.440
G1 X183.167 Y236.851
G1 X182.341 Y236.141
G1 X181.642 Y235.321
G1 X181.005 Y234.367
G1 X180.451 Y233.295
G1 X180.016 Y232.130
G1 X179.779 Y230.909
G1 X179.794 Y229.716
G1 X180.107 Y228.592
G1 X180.772 Y227.536
G1 X181.826 Y226.521
G1 X183.254 Y225.581
G1 X184.280 Y224.876
G1 X184.688 Y224.353
G1 X184.537 Y223.967
G1 X183.879 Y223.690
G1 X182.763 Y223.490
G1 X181.569 Y223.291
G1 X180.624 Y223.025
G1 X179.774 Y222.669
G1 X178.860 Y222.232
G1 X177.717 Y221.716
G1 X176.626 Y221.148
G1 X176.162 Y220.548
G1 X176.266 Y219.934
G1 X176.879 Y219.293
G1 X177.905 Y218.546
G1 X178.892 Y217.692
G1 X179.670 Y216.737
G1 X180.386 Y215.673
G1 X181.166 Y214.508
G1 X182.049 Y213.329
G1 X182.971 Y212.233
G1 X183.840 Y211.340
G1 X184.506 Y210.961
G1 X184.988 Y211.044
G1 X185.440 Y211.611
G1 X185.878 Y212.646
G1 X185.918 Y213.726
G1 X185.447 Y214.554
G1 X184.539 Y215.093
G1 X183.336 Y215.537
G1 X182.188 Y216.030
G1 X181.295 Y216.520
G1 X180.666 Y216.955
G1 X180.181 Y217.331
G1 X179.712 Y217.673
G1 X179.172 Y218.013
G1 X178.439 Y218.366
G1 X177.528 Y218.711
G1 X176.586 Y218.999
G1 X176.109 Y219.207
G1 X176.205 Y219.360
G1 X176.817 Y219.490
G1 X177.694 Y219.656
G1 X178.550 Y219.946
G1 X179.381 Y220.443
G1 X180.315 Y221.180
G1 X181.476 Y222.034
G1 X182.996 Y222.845
G1 X184.164 Y223.574
G1 X184.693 Y224.301
G1 X184.661 Y225.095
G1 X184.150 Y226.019
G1 X183.274 Y227.173
G1 X182.438 Y228.736
G1 X182.057 Y230.290
G1 X182.042 Y231.667
G1 X182.255 Y232.803
G1 X182.576 Y233.703
G1 X182.962 Y234.419
G1 X183.436 Y234.997
G1 X183.924 Y235.499
G1 X184.330 Y235.946
G1 X184.490 Y236.351
G1 X184.288 Y236.786
G1 X183.985 Y237.212
G1 X183.739 Y237.548
G1 X183.549 Y237.785
G1 X183.360 Y237.875
G1 X183.132 Y237.810
G1 X182.827 Y237.623
G1 X182.419 Y237.332
G1 X181.797 Y236.945
G1 X180.761 Y236.479
G1 X179.305 Y236.008
G1 X177.469 Y235.631
G1 X175.755 Y235.426
G1 X174.737 Y235.289
G1 X174.346 Y235.188
G1 X174.520 Y235.113
G1 X175.203 Y235.061
G1 X176.343 Y235.041
G1 X177.890 Y235.099
G1 X179.266 Y235.292
G1 X180.120 Y235.529
G1 X180.407 Y235.722
G1 X180.193 Y235.852
G1 X179.474 Y236.000
G1 X178.319 Y236.270
G1 X176.890 Y236.819
G1 X175.916 Y237.606
G1 X175.550 Y238.444
G1 X175.739 Y239.286
G1 X176.423 Y240.157
G1 X177.526 Y241.125
G1 X178.322 Y241.832
G1 X178.680 Y242.233
G1 X178.635 Y242.445
G1 X178.233 Y242.562
G1 X177.469 Y242.645
G1 X176.280 Y242.751
G1 X174.887 Y242.966
G1 X174.019 Y243.180
G1 X173.749 Y243.247
G1 X174.012 Y243.160
G1 X174.759 Y242.957
G1 X175.954 Y242.750
G1 X177.034 Y242.645
G1 X177.800 Y242.580
G1 X178.270 Y242.503
G1 X178.547 Y242.371
G1 X178.704 Y242.111
G1 X178.785 Y241.568
G1 X178.806 Y240.555
G1 X178.737 Y239.124
G1 X178.453 Y237.405
G1 X177.919 Y235.902
G1 X177.259 Y234.579
G1 X176.735 Y233.186
G1 X176.637 Y231.588
G1 X176.961 Y229.911
G1 X177.491 Y228.292
G1 X177.935 Y226.675
G1 X178.227 Y225.046
G1 X178.298 Y223.544
G1 X178.157 Y222.346
G1 X177.901 Y221.537
G1 X177.592 Y221.100
G1 X177.249 Y220.978
G1 X176.974 Y221.119
G1 X176.842 Y221.530
G1 X176.885 Y222.269
G1 X177.079 Y223.380
G1 X177.347 Y224.835
G1 X177.557 Y226.386
G1 X177.645 Y227.815
G1 X177.656 Y229.102
G1 X177.643 Y230.322
