G21 ; Set units to millimeters
G90 ; Use absolute coordinates
M83 ; Use relative distances for extrusion
G28 X Y ; Home X and Y
G1 Z10 F1000 ; Raise Z to safe height
; Generated by GCodeGen 0.1.0
; Input file: scribbles-36.svg
G21 ; Set units to millimeters
G90 ; Use absolute coordinates
G28 X Y Z ; Home axes
G1 Z5.000 F1000
G1 X10.000 Y10.000 F3000
G1 Z0.000 F1000
G1 X50.000 Y10.000 F1500
G1 X50.000 Y50.000 F1500
G1 X10.000 Y50.000 F1500
G1 X10.000 Y10.000 F1500
G1 Z5.000 F1000
G1 Z10 F1000 ; Raise Z
G28 X Y ; Home X and Y
M84 ; Disable motors
